X: 30850
T: Out Of The Corner Of Your Eye
R: hornpipe
M: 4/4
K: Cmajor
|:c>d|"C" e>ge>c "F" a.ge>c|"C" c>de>c "G7" G2 c>B|"F"A>FA>c f.ed>c|"G7" B>cd>B G2 c>d|
"C" e.ge>c "F"f>ge>d|"C" c>de>c G2c>B|"F"A>FA>c "G7"e>dc>B|"C"c2c>Bc2:|
|:c>d|"Am"e>aa>b a>ge>d|"C" c.de>c "G7"G2c.d|"Am" e c'2 b a>ge>d|"C" c>de.c "G7"d2 c>d|
"C"e>ge>c "F" a>ge>d|"C"c>de>c "G" G2c>B|"F" A>FA>c "G7"e>dc>B|"C" c6|

